X:121
T:Woodstock Bower
B:Playford<92>s Dancing Master, Vol 2, 1713-28
Z:vmp.Chris Partington 2015 www.village-music-project.org.uk
M:3/2
L:1/4
Q:1/2=100
K:Dm
"Dm"Ad "A"^cA "Dm"d2|Ad "C"cB/A/ G"F"F|AA/B/ cB/A/ "Gm"GF/E/|"Dm"DA "A"GF "Dm"ED:|
P:B
"C"c>d e/d/c "F"f2|"E5"ed/c/ =Be "Am"cA|"C"c>d cA "F"c2|"E5"ed/c/ =Be "Am"cA|
"C"c>d cA "Gm"B2|"Am"AG/F/ EA "Dm"GF|"F"AA/B/ cB/A/ "Gm"GF/E/|"Dm"DA "A"GF "Dm"ED|
"C"c>d e/d/c "F"f2|"E5"ed/c/ =Be "Am"cA|"F"c>d cA "Gm"GF|"A"E3D "Dm"D2|]

